packages/tokens/icons/fullScreen/size32Px.svg

<svg viewBox="0 0 32 32" fill="none" xmlns="http://www.w3.org/2000/svg" width="1em" height="1em"><path d="M13.5 18.5L2.5 29.5M2.5 29.5L2.5 18.5M2.5 29.5H13.5" stroke="currentColor" stroke-linecap="round" stroke-linejoin="round"/><path d="M18.5 13.5L29.5 2.49999M29.5 2.49999L29.5 13.5M29.5 2.49999L18.5 2.49999" stroke="currentColor" stroke-linecap="round" stroke-linejoin="round"/></svg>

<svg xmlns="http://www.w3.org/2000/svg" fill="none" viewBox="0 0 32 32" width="1em" height="1em"><path stroke="currentColor" stroke-linecap="round" stroke-linejoin="round" d="m13.5 18.5-11 11m0 0v-11m0 11h11m5-16 11-11m0 0v11m0-11h-11"/></svg>
